!!!OTL: Treue in der Fremde.
!!!OTL-incipit: WENN ICH AN DEN LETZTEN ABEND DENK
!!!COM: Volksweise
!!!ARE: Europa, Mitteleuropa, Deutschland
!!!SCT: F0066
!!!TXL: @@DE
!!!YEM: Copyright 1995, estate of Helmut Schaffrath.
**kern	**text
*ICvox	*
*clefG2	*
*M4/4	*
*met(c)	*
*k[b-]	*
*F:	*
{8f	1._Wenn
8a	ich
=1	=1
4cc	an
4cc	den
(4cc	letʒ-
8dd)	.
8cc	-ten
=2	=2
8ccL	A-
8b-J	.
4b-/	-bend
(8b-/L	denk',
8ddJ)}	.
{8cc/	als
8b-/	ich
=3	=3
4a	Abſchied
4a	.
(4cc	von
8b-)	.
8a	ihr
=4	=4
2g	nahm
4r}	.
{8f	1._Wenn
8a	ich
=5	=5
4cc	an
4cc	den
(4cc	letʒ-
8dd)	.
8cc	-ten
=6	=6
8ccL	A-
8b-J	.
4b-/	-bend
(8b-/L	denk',
8ddJ)}	.
{8cc/	als
8b-/	ich
=7	=7
4a	Abſchied
4a	.
(4cc	von
8b-)	.
8a	ihr
=8	=8
2g	nahm
4r}	.
{8f	1._denn
8f	der
=9	=9
4dd	Mond
8dd	ſchien
8dd	ſo
(8dd/	hell,
8ee/	.
8ff)	ich
8dd	mußt'
=10	=10
8ddL	ſchei-
8ccJ	.
4cc	-den_von
4cc}	ihr,
{(8b-/	doch
8a)	mein
=11	=11
4g	Herʒ
4dd	blieb
4cc	ſtets
4b-	bei
=12	=12
2a	ihr
4r}	.
{8f	denn
8f	der
=13	=13
4dd	1._Mond
8dd	ſchien
8dd	ſo
8dd/	hell,
8ee/	.
8ff/L	ich
8ddJ	mußt'
=14	=14
8ddL	ſchei-
8ccJ	.
4cc	-den_von
4ff;}	ihr,
{(8b-/L	doch
8aJ)	mein
=15	=15
4g	Herʒ
4dd	blieb
4cc	ſtets
8b-	bei
8g	.
=16	=16
2f	ihr.
4r}	.
==	==
!!!AGN: Liebes - Lied, Abschied
!!!ONB: ESAC (Essen Associative Code) Database: FINK
!!!AMT: simple quadruple
!!!AIN: vox
!!!EED: Helmut Schaffrath
!!!EEV: 1.0
!!!GTL: Volkslieder
!!Text: Volkslied
!!!source: Musikalischer Hausschatz der Deutschen. Eine Sammlung von über 1000 Liedern und Gesängen mit Singstimmen und Klavierbegleitung. Leipzig, Litterarisches Verlags-Haus.
!!!page: 40
!!!URL-scan: https://www.digitale-sammlungen.de/en/view/bsb11144622?page=48,49
!!!ENC: Anna Maria Matuszewska
!!!EEV: 2024/07/25
*-	*-
